X: 1
T: Oi Shloimele   [Em]
C: From Pete Sokolow, Klez Kamp 2001
R: Waltz
Z: Terry Traub
Z: 2006 John Chambers <jc:trillian.mit.edu>
M: 3/4
K: Dm
L: 1/4
|:\
"Em" E G B | "Em" e B G | "Am" B A2- | "Am"A3 | "Am" AGE | "Am" AGE | "Em"G3- | "Em"G3 |
"G"D G B | "E7"d c B | "Am" d A2- | "Am"A3 | "Am" A B c | "D7" e d c | "G" B3- | "B7"B3 :|
|:\
"Em" G3 | "Em" G F E | "Em" G3 | "Em" G F E | "Em" G F E | "F7" G F E | "B7" F3- | "B7" F3 |
"Am6" A3 | "B7" A G F | "Em" G3 | "Em" G F E | "Am6/F#" F F F | "B7" F G F | "Em" E3- | "Em" E3 :|
